img/time-1.svg

<svg width="20" height="16" viewBox="0 0 20 16" fill="none" xmlns="http://www.w3.org/2000/svg">
<path d="M18 8C18 8.53043 18.2107 9.03914 18.5858 9.41421C18.9609 9.78929 19.4696 10 20 10V14C20 14.5304 19.7893 15.0391 19.4142 15.4142C19.0391 15.7893 18.5304 16 18 16H2C1.46957 16 0.960859 15.7893 0.585786 15.4142C0.210714 15.0391 0 14.5304 0 14V10C1.11 10 2 9.1 2 8C2 7.46957 1.78929 6.96086 1.41421 6.58579C1.03914 6.21071 0.530433 6 0 6V2C0 0.89 0.9 0 2 0H18C18.5304 0 19.0391 0.210714 19.4142 0.585786C19.7893 0.960859 20 1.46957 20 2V6C19.4696 6 18.9609 6.21071 18.5858 6.58579C18.2107 6.96086 18 7.46957 18 8ZM14.5 12.25C14.5 10.75 11.5 10 10 10C8.5 10 5.5 10.75 5.5 12.25V13H14.5V12.25ZM10 8.25C10.5967 8.25 11.169 8.01295 11.591 7.59099C12.0129 7.16903 12.25 6.59674 12.25 6C12.25 5.40326 12.0129 4.83097 11.591 4.40901C11.169 3.98705 10.5967 3.75 10 3.75C9.40326 3.75 8.83097 3.98705 8.40901 4.40901C7.98705 4.83097 7.75 5.40326 7.75 6C7.75 6.59674 7.98705 7.16903 8.40901 7.59099C8.83097 8.01295 9.40326 8.25 10 8.25Z" fill="#BC9B77"/>
</svg>

<svg width="20" height="16" fill="none" xmlns="http://www.w3.org/2000/svg"><path d="M18 8a2 2 0 002 2v4a2 2 0 01-2 2H2a2 2 0 01-2-2v-4a2 2 0 100-4V2a2 2 0 012-2h16a2 2 0 012 2v4a2 2 0 00-2 2zm-3.5 4.25c0-1.5-3-2.25-4.5-2.25s-4.5.75-4.5 2.25V13h9v-.75zm-4.5-4a2.25 2.25 0 100-4.5 2.25 2.25 0 000 4.5z" fill="#BC9B77"/></svg>
